X: 3083
Q:"Strathspey."
M: C
L: 1/8
K: A
|:\
vE2-E>uF E<CC<E | A<c B>A F<A E<C |\
c<e d>c B>A G<B | (3Ace !1!a>!3!c' a>!0!e c<A |
!1!d>!3!f!2!b>c' d'>c'b>a | !2!g>ag>f (3efe (3dcB |\
ve<c va>ue vd>vcuB>uA | vf<d vb>ua vg>veud>uB |\
e<c a>e f>d b>a | (3gfe (3dcB A2(A<c) |]


